icons/solid/shopping-bag.svg

<svg width="24" height="24" viewBox="0 0 24 24" fill="none" xmlns="http://www.w3.org/2000/svg">
<path fill-rule="evenodd" clip-rule="evenodd" d="M6 7C4.34315 7 3 8.34315 3 10V19C3 20.6569 4.34315 22 6 22H18C19.6569 22 21 20.6569 21 19V10C21 8.34315 19.6569 7 18 7H6ZM12 4C10.3431 4 9 5.34315 9 7V11C9 11.5523 8.55228 12 8 12C7.44772 12 7 11.5523 7 11V7C7 4.23858 9.23858 2 12 2C14.7614 2 17 4.23858 17 7V11C17 11.5523 16.5523 12 16 12C15.4477 12 15 11.5523 15 11V7C15 5.34315 13.6569 4 12 4Z" fill="currentColor"/>
</svg>

<svg width="24" height="24" fill="none" xmlns="http://www.w3.org/2000/svg"><path fill-rule="evenodd" clip-rule="evenodd" d="M6 7a3 3 0 00-3 3v9a3 3 0 003 3h12a3 3 0 003-3v-9a3 3 0 00-3-3H6zm6-3a3 3 0 00-3 3v4a1 1 0 11-2 0V7a5 5 0 0110 0v4a1 1 0 11-2 0V7a3 3 0 00-3-3z" fill="currentColor"/></svg>
